Planet/symbolic/apps/multimedia-volume-control-symbolic.svg

<?xml version="1.0" encoding="UTF-8" standalone="no"?>
<!-- Created with Inkscape (http://www.inkscape.org/) -->

<svg
   width="16"
   height="16"
   viewBox="0 0 4.2333332 4.2333335"
   version="1.1"
   id="svg11945"
   inkscape:version="1.1.1 (3bf5ae0d25, 2021-09-20, custom)"
   sodipodi:docname="audio-volume-high-symbolic.svg"
   xmlns:inkscape="http://www.inkscape.org/namespaces/inkscape"
   xmlns:sodipodi="http://sodipodi.sourceforge.net/DTD/sodipodi-0.dtd"
   xmlns="http://www.w3.org/2000/svg"
   xmlns:svg="http://www.w3.org/2000/svg">
  <sodipodi:namedview
     id="namedview11947"
     pagecolor="#ffffff"
     bordercolor="#666666"
     borderopacity="1.0"
     inkscape:pageshadow="2"
     inkscape:pageopacity="0.0"
     inkscape:pagecheckerboard="0"
     inkscape:document-units="px"
     showgrid="false"
     units="in"
     inkscape:zoom="22.627417"
     inkscape:cx="2.4527766"
     inkscape:cy="5.6347572"
     inkscape:window-width="1920"
     inkscape:window-height="1011"
     inkscape:window-x="0"
     inkscape:window-y="0"
     inkscape:window-maximized="1"
     inkscape:current-layer="svg11945"
     showguides="true" />
  <defs
     id="defs11942" />
  <path
     id="rect924"
     style="fill:#363636;fill-opacity:1;stroke:none;stroke-width:0.499997"
     d="M 8.2539063,2 C 8.1056997,2.0076649 7.9598782,2.0644227 7.8398439,2.1660156 L 5.0000001,5 h -3 c -0.554,0 -1,0.4459999 -1,1 v 4 c 0,0.554 0.446,1 1,1 h 3 l 2.8398438,2.833984 c 0.4682135,0.392247 1.1606717,0.04281 1.1601562,-0.585937 V 2.7480469 C 8.9995768,2.4597238 8.8415605,2.1967206 8.5937501,2.0722656 8.4853412,2.0184229 8.369177,1.9940392 8.2539063,2 Z m 4.5410157,0.7304688 c -0.395625,0.011813 -0.644063,0.5338126 -0.257813,0.9140624 1.214705,1.1326265 1.9056,2.7180803 1.908203,4.3789063 -0.0019,1.6654049 -0.695945,3.2550905 -1.916015,4.3886715 -0.469,0.446 0.17464,1.146516 0.681641,0.728516 1.42231,-1.321988 2.231578,-3.1753822 2.234374,-5.1171875 -0.0019,-1.9382904 -0.807394,-3.7890292 -2.224609,-5.1113281 -0.14675,-0.13375 -0.293906,-0.1855782 -0.425781,-0.1816406 z m -2.332031,1.4765624 c -0.375844,0.016313 -0.6430628,0.5139844 -0.289063,0.8964844 0.809728,0.7553522 1.270097,1.8125764 1.271484,2.9199219 -7.73e-4,1.1099744 -0.462731,2.1697195 -1.27539,2.9257815 -0.4730001,0.43 0.139689,1.152469 0.679687,0.730469 1.016116,-0.94459 1.594087,-2.2689004 1.595703,-3.6562505 -0.0017,-1.3844254 -0.577379,-2.7061694 -1.589843,-3.6503906 -0.13,-0.1235001 -0.267297,-0.1714532 -0.392578,-0.1660157 z"
     transform="scale(0.26458333)"
     sodipodi:nodetypes="sccsssscccccssccccccssccccccs" />
</svg>

<?xml version="1.0" encoding="UTF-8" standalone="no"?>
<!-- Created with Inkscape (http://www.inkscape.org/) -->

<svg
   width="16"
   height="16"
   viewBox="0 0 4.2333332 4.2333335"
   version="1.1"
   id="svg11945"
   inkscape:version="1.1.1 (3bf5ae0d25, 2021-09-20, custom)"
   sodipodi:docname="multimedia-volume-control-symbolic.svg"
   xmlns:inkscape="http://www.inkscape.org/namespaces/inkscape"
   xmlns:sodipodi="http://sodipodi.sourceforge.net/DTD/sodipodi-0.dtd"
   xmlns="http://www.w3.org/2000/svg"
   xmlns:svg="http://www.w3.org/2000/svg">
  <sodipodi:namedview
     id="namedview11947"
     pagecolor="#ffffff"
     bordercolor="#666666"
     borderopacity="1.0"
     inkscape:pageshadow="2"
     inkscape:pageopacity="0.0"
     inkscape:pagecheckerboard="0"
     inkscape:document-units="px"
     showgrid="false"
     units="in"
     inkscape:zoom="32"
     inkscape:cx="2.65625"
     inkscape:cy="5.859375"
     inkscape:window-width="1920"
     inkscape:window-height="996"
     inkscape:window-x="0"
     inkscape:window-y="0"
     inkscape:window-maximized="1"
     inkscape:current-layer="svg11945"
     showguides="true" />
  <defs
     id="defs11942" />
  <path
     id="rect924"
     style="fill:#363636;fill-opacity:1;stroke:none;stroke-width:0.499997"
     d="M 8.2539062 2 C 8.1056997 2.0076649 7.959878 2.0644227 7.8398438 2.1660156 L 5 5 L 2 5 C 1.446 5 1 5.4459999 1 6 L 1 10 C 1 10.554 1.446 11 2 11 L 5 11 L 7.8398438 13.833984 C 8.3080572 14.226231 9.0005155 13.876794 9 13.248047 L 9 2.7480469 C 8.9995767 2.4597238 8.8415604 2.1967206 8.59375 2.0722656 C 8.4853411 2.0184229 8.3691769 1.9940392 8.2539062 2 z M 12.794922 2.7304688 C 12.399297 2.7422817 12.150859 3.2642815 12.537109 3.6445312 C 13.751814 4.7771577 14.44271 6.3626115 14.445312 8.0234375 C 14.443413 9.6888424 13.749367 11.278528 12.529297 12.412109 C 12.060297 12.858109 12.703937 13.558625 13.210938 13.140625 C 14.633247 11.818637 15.442517 9.9652428 15.445312 8.0234375 C 15.443413 6.0851471 14.637918 4.2344083 13.220703 2.9121094 C 13.073953 2.7783594 12.926797 2.7265312 12.794922 2.7304688 z M 8 3.5 L 8 12.5 L 5.5 10 L 2 10 L 2 6 L 5.5 6 L 8 3.5 z M 10.462891 4.2070312 C 10.087047 4.2233442 9.8198283 4.7210156 10.173828 5.1035156 C 10.983556 5.8588678 11.443926 6.916092 11.445312 8.0234375 C 11.44454 9.1334119 10.982581 10.193157 10.169922 10.949219 C 9.6969218 11.379219 10.309611 12.101687 10.849609 11.679688 C 11.865725 10.735098 12.443697 9.4107876 12.445312 8.0234375 C 12.443613 6.6390121 11.867933 5.3172681 10.855469 4.3730469 C 10.725469 4.2495468 10.588172 4.2015938 10.462891 4.2070312 z "
     transform="scale(0.26458333)" />
</svg>
